X: 15199
T: Gillie's Taxi
R: jig
M: 6/8
K: Dmajor
D2E DB,A,|B,2A, FEF|D2E DB,A,|BAd F2E|
D2E DB,A,|B,2A, FEF|EBB Bcd|AdD FEF:|
DBB Bcd|DAA ABc|dEF GFA|BAd F2E|
FBB GBB|Add cAF|E2F EDB,|DED B,2A,:|

